X: 14518
T: Gan Ainm
R: jig
M: 6/8
K: Gmajor
"G"d2 d dcB|"F"c2 c c3|"G"B2 B BAG|"D"A3 ABc|
"G"d2 d dcB|"F"c2 c c3|"G"B3 "D"A3|"G"G6:|
|:"G"B2 d BAG|"F"A2 c A3|"G"G2 G GEB,|"D"D6|
"G"B2 d BAG|"F"A2 c A3|"G"GGG BAG|BAG G3:|
|:"G"(B3 B)cB|"F"A6|"G"G3 "D"A3|"G"BAG "D"A3|
"G"(B3 B)cB|"F"A6|"G"ded "D"cBA|"G"BGG G3:|
|:"Em"e2 e g2 g|a2 a b2 b|bag e2 e|ged B3|
e2 e g2 g|a2 a b2 b|bag "D"e2 d|"Em"e6:|

